Newaita-dark/apps/128/stacer.svg

<?xml version="1.0" encoding="UTF-8"?>
<svg xmlns="http://www.w3.org/2000/svg" xmlns:xlink="http://www.w3.org/1999/xlink" width="128pt" height="128pt" viewBox="0 0 128 128" version="1.1">
<defs>
<radialGradient id="radial0" gradientUnits="userSpaceOnUse" cx="450.908936" cy="189.579361" fx="450.908936" fy="189.579361" r="21.166656" gradientTransform="matrix(0.000000696681,-0.31253,-0.562554,-0.000000406154,178.092608,254.381318)">
<stop offset="0" style="stop-color:rgb(0%,0%,0%);stop-opacity:0.313725;"/>
<stop offset="0.222222" style="stop-color:rgb(0%,0%,0%);stop-opacity:0.27451;"/>
<stop offset="1" style="stop-color:rgb(0%,0%,0%);stop-opacity:0;"/>
</radialGradient>
<radialGradient id="radial1" gradientUnits="userSpaceOnUse" cx="450.908936" cy="189.579361" fx="450.908936" fy="189.579361" r="21.166656" gradientTransform="matrix(-0.000000696681,0.31253,0.562554,0.000000406154,-51.080475,-30.109928)">
<stop offset="0" style="stop-color:rgb(0%,0%,0%);stop-opacity:0.313725;"/>
<stop offset="0.222222" style="stop-color:rgb(0%,0%,0%);stop-opacity:0.27451;"/>
<stop offset="1" style="stop-color:rgb(0%,0%,0%);stop-opacity:0;"/>
</radialGradient>
<radialGradient id="radial2" gradientUnits="userSpaceOnUse" cx="450.908936" cy="189.579361" fx="450.908936" fy="189.579361" r="21.166656" gradientTransform="matrix(-0.000000696681,-0.31253,0.562554,-0.000000406154,-51.080475,254.381318)">
<stop offset="0" style="stop-color:rgb(0%,0%,0%);stop-opacity:0.313725;"/>
<stop offset="0.222222" style="stop-color:rgb(0%,0%,0%);stop-opacity:0.27451;"/>
<stop offset="1" style="stop-color:rgb(0%,0%,0%);stop-opacity:0;"/>
</radialGradient>
<radialGradient id="radial3" gradientUnits="userSpaceOnUse" cx="450.908936" cy="189.579361" fx="450.908936" fy="189.579361" r="21.166656" gradientTransform="matrix(0.000000696681,0.31253,-0.562554,0.000000406154,178.0926,-30.10993)">
<stop offset="0" style="stop-color:rgb(0%,0%,0%);stop-opacity:0.313725;"/>
<stop offset="0.222222" style="stop-color:rgb(0%,0%,0%);stop-opacity:0.27451;"/>
<stop offset="1" style="stop-color:rgb(0%,0%,0%);stop-opacity:0;"/>
</radialGradient>
<linearGradient id="linear0" gradientUnits="userSpaceOnUse" x1="255.323059" y1="233.5" x2="255.323044" y2="254.666656" gradientTransform="matrix(0.0534402,0,0,0.250024,49.861545,53.755135)">
<stop offset="0" style="stop-color:rgb(0%,0%,0%);stop-opacity:0.27451;"/>
<stop offset="1" style="stop-color:rgb(0%,0%,0%);stop-opacity:0;"/>
</linearGradient>
<linearGradient id="linear1" gradientUnits="userSpaceOnUse" x1="254" y1="-168.666672" x2="254" y2="233.5" gradientTransform="matrix(1,0,0,1,0.00000508517,0)">
<stop offset="0" style="stop-color:rgb(93.333333%,93.333333%,93.333333%);stop-opacity:1;"/>
<stop offset="1" style="stop-color:rgb(74.117647%,74.117647%,74.117647%);stop-opacity:1;"/>
</linearGradient>
<linearGradient id="linear2" gradientUnits="userSpaceOnUse" x1="960" y1="1375.118164" x2="960" y2="415.118103" >
<stop offset="0" style="stop-color:rgb(30.196078%,71.372549%,67.45098%);stop-opacity:1;"/>
<stop offset="1" style="stop-color:rgb(50.196078%,79.607843%,76.862745%);stop-opacity:1;"/>
</linearGradient>
<linearGradient id="linear3" gradientUnits="userSpaceOnUse" x1="960" y1="1375.118164" x2="960" y2="415.118103" >
<stop offset="0" style="stop-color:rgb(25.882353%,64.705882%,96.078431%);stop-opacity:1;"/>
<stop offset="1" style="stop-color:rgb(39.215686%,70.980392%,96.470588%);stop-opacity:1;"/>
</linearGradient>
<linearGradient id="linear4" gradientUnits="userSpaceOnUse" x1="1240" y1="1175.118164" x2="960" y2="935.118164" gradientTransform="matrix(0.0661521,0,0,0.0661521,0,0)">
<stop offset="0" style="stop-color:rgb(14.901961%,65.098039%,60.392157%);stop-opacity:0.784314;"/>
<stop offset="1" style="stop-color:rgb(30.196078%,71.372549%,67.45098%);stop-opacity:0;"/>
</linearGradient>
<linearGradient id="linear5" gradientUnits="userSpaceOnUse" x1="-70.384018" y1="-314.405029" x2="-257.763397" y2="-142.59996" gradientTransform="matrix(1,0,0,1,0.000000000000028422,0)">
<stop offset="0" style="stop-color:rgb(30.196078%,71.372549%,67.45098%);stop-opacity:1;"/>
<stop offset="1" style="stop-color:rgb(50.196078%,79.607843%,76.862745%);stop-opacity:1;"/>
</linearGradient>
<linearGradient id="linear6" gradientUnits="userSpaceOnUse" x1="254" y1="53.583332" x2="254" y2="11.25" >
<stop offset="0" style="stop-color:rgb(38.039216%,38.039216%,38.039216%);stop-opacity:1;"/>
<stop offset="1" style="stop-color:rgb(45.882353%,45.882353%,45.882353%);stop-opacity:1;"/>
</linearGradient>
</defs>
<g id="surface1">
<path style=" stroke:none;fill-rule:nonzero;fill:url(#radial0);" d="M 72.765625 112.136719 L 83.351562 112.136719 L 83.351562 106.84375 L 72.765625 106.84375 Z M 72.765625 112.136719 "/>
<path style=" stroke:none;fill-rule:nonzero;fill:url(#radial1);" d="M 54.246094 112.136719 L 43.660156 112.136719 L 43.660156 117.429688 L 54.246094 117.429688 Z M 54.246094 112.136719 "/>
<path style=" stroke:none;fill-rule:nonzero;fill:url(#radial2);" d="M 54.246094 112.136719 L 43.660156 112.136719 L 43.660156 106.84375 L 54.246094 106.84375 Z M 54.246094 112.136719 "/>
<path style=" stroke:none;fill-rule:nonzero;fill:url(#radial3);" d="M 72.765625 112.136719 L 83.351562 112.136719 L 83.351562 117.429688 L 72.765625 117.429688 Z M 72.765625 112.136719 "/>
<path style=" stroke:none;fill-rule:nonzero;fill:url(#linear0);" d="M 54.246094 110.8125 L 72.765625 110.8125 L 72.765625 117.429688 L 54.246094 117.429688 Z M 54.246094 110.8125 "/>
<path style="fill-rule:nonzero;fill:url(#linear1);stroke-width:3;stroke-linecap:round;stroke-linejoin:miter;stroke:rgb(20%,20%,20%);stroke-opacity:1;stroke-miterlimit:4;" d="M 254.006994 -168.660675 C 365.058889 -168.660675 455.081542 -78.638022 455.081542 32.413873 C 455.081542 143.465768 365.058889 233.504045 254.006994 233.504045 C 142.939475 233.504045 52.916822 143.465768 52.916822 32.413873 C 52.916822 -78.638022 142.939475 -168.660675 254.006994 -168.660675 Z M 254.006994 -168.660675 " transform="matrix(0.250024,0,0,0.250024,0,53.755133)"/>
<path style=" stroke:none;fill-rule:nonzero;fill:rgb(0%,0%,0%);fill-opacity:0.196078;" d="M 63.507812 112.136719 C 35.652344 112.136719 13.230469 89.710938 13.230469 61.859375 C 13.230469 61.695312 13.230469 61.53125 13.234375 61.367188 C 13.496094 88.992188 35.816406 111.152344 63.507812 111.152344 C 91.195312 111.152344 113.515625 88.992188 113.777344 61.367188 C 113.78125 61.53125 113.78125 61.695312 113.78125 61.859375 C 113.78125 89.710938 91.359375 112.136719 63.507812 112.136719 Z M 63.507812 112.136719 "/>
<path style=" stroke:none;fill-rule:nonzero;fill:rgb(100%,100%,100%);fill-opacity:0.784314;" d="M 63.507812 11.585938 C 35.652344 11.585938 13.230469 34.007812 13.230469 61.859375 C 13.230469 62.023438 13.230469 62.1875 13.234375 62.351562 C 13.496094 34.726562 35.816406 12.570312 63.507812 12.570312 C 91.195312 12.570312 113.515625 34.726562 113.777344 62.351562 C 113.78125 62.1875 113.78125 62.023438 113.78125 61.859375 C 113.78125 34.007812 91.359375 11.585938 63.507812 11.585938 Z M 63.507812 11.585938 "/>
<path style=" stroke:none;fill-rule:nonzero;fill:rgb(12.941177%,12.941177%,12.941177%);fill-opacity:1;" d="M 63.507812 11.210938 C 35.453125 11.210938 12.855469 33.804688 12.855469 61.859375 C 12.855469 89.914062 35.453125 112.511719 63.507812 112.511719 C 91.558594 112.511719 114.15625 89.914062 114.15625 61.859375 C 114.15625 33.804688 91.558594 11.210938 63.507812 11.210938 Z M 63.507812 11.960938 C 91.15625 11.960938 113.40625 34.207031 113.40625 61.859375 C 113.40625 89.511719 91.15625 111.761719 63.507812 111.761719 C 35.855469 111.761719 13.605469 89.511719 13.605469 61.859375 C 13.605469 34.207031 35.855469 11.960938 63.507812 11.960938 Z M 63.507812 11.960938 "/>
<path style="fill-rule:nonzero;fill:rgb(27.058824%,35.294118%,39.215686%);fill-opacity:1;stroke-width:2.526316;stroke-linecap:round;stroke-linejoin:miter;stroke:rgb(20%,20%,20%);stroke-opacity:1;stroke-miterlimit:4;" d="M 254.006994 -136.913707 C 347.513689 -136.913707 423.334574 -61.108446 423.334574 32.413873 C 423.334574 125.936192 347.513689 201.757077 254.006994 201.757077 C 160.484674 201.757077 84.66379 125.936192 84.66379 32.413873 C 84.66379 -61.108446 160.484674 -136.913707 254.006994 -136.913707 Z M 254.006994 -136.913707 " transform="matrix(0.250024,0,0,0.250024,0,53.755133)"/>
<path style="fill-rule:nonzero;fill:url(#linear2);stroke-width:7.757979;stroke-linecap:round;stroke-linejoin:miter;stroke:rgb(20%,20%,20%);stroke-opacity:1;stroke-miterlimit:4;" d="M 960.026483 415.11786 C 671.924059 415.11786 439.977692 647.064227 439.977692 935.107601 C 439.977692 1113.968483 529.378609 1271.158205 666.07816 1364.633535 L 711.310063 1298.557165 C 595.632128 1219.430858 519.989741 1086.451424 519.989741 935.107601 C 519.989741 691.351338 716.21117 495.129909 960.026483 495.129909 C 1203.782746 495.129909 1400.004175 691.351338 1400.004175 935.107601 C 1400.004175 1086.451424 1324.361788 1219.430858 1208.683853 1298.557165 L 1253.915756 1364.633535 C 1390.615307 1271.158205 1480.016224 1113.968483 1480.016224 935.107601 C 1480.016224 647.064227 1248.069857 415.11786 960.026483 415.11786 Z M 960.026483 415.11786 " transform="matrix(0.0661521,0,0,0.0661521,0,0)"/>
<path style="fill-rule:nonzero;fill:url(#linear3);stroke-width:7.757979;stroke-linecap:round;stroke-linejoin:miter;stroke:rgb(20%,20%,20%);stroke-opacity:1;stroke-miterlimit:4;" d="M 960.026483 415.11786 L 960.026483 495.129909 C 1203.782746 495.129909 1400.004175 691.351338 1400.004175 935.107601 C 1400.004175 1086.451424 1324.361788 1219.430858 1208.683853 1298.557165 L 1253.915756 1364.633535 C 1390.615307 1271.158205 1480.016224 1113.968483 1480.016224 935.107601 C 1480.016224 647.064227 1248.069857 415.11786 960.026483 415.11786 Z M 960.026483 415.11786 " transform="matrix(0.0661521,0,0,0.0661521,0,0)"/>
<path style=" stroke:none;fill-rule:nonzero;fill:url(#linear4);" d="M 63.507812 38.046875 L 63.507812 61.859375 L 81.816406 77.121094 C 85.257812 72.992188 87.320312 67.675781 87.320312 61.859375 C 87.320312 48.667969 76.699219 38.046875 63.507812 38.046875 Z M 63.507812 38.046875 "/>
<path style="fill-rule:nonzero;fill:url(#linear5);stroke-width:3;stroke-linecap:round;stroke-linejoin:round;stroke:rgb(12.941177%,12.941177%,12.941177%);stroke-opacity:1;stroke-miterlimit:4;" d="M -138.923527 -312.988665 C -136.006955 -312.995242 -133.636963 -310.620215 -133.642332 -307.693574 L -133.639057 -212.451713 C -133.644426 -209.525072 -136.007507 -207.165149 -138.924079 -207.158573 C -141.85072 -207.163941 -144.222588 -209.516953 -144.217219 -212.443594 L -144.218618 -307.70747 C -144.225195 -310.624042 -141.850168 -312.994034 -138.923527 -312.988665 Z M -138.923527 -312.988665 " transform="matrix(-0.161151,0.191161,-0.191161,-0.161151,0,53.755133)"/>
<path style="fill-rule:nonzero;fill:url(#linear6);stroke-width:3;stroke-linecap:round;stroke-linejoin:round;stroke:rgb(12.941177%,12.941177%,12.941177%);stroke-opacity:1;stroke-miterlimit:4;" d="M 254.006994 11.24402 C 265.693378 11.24402 275.161223 20.727489 275.161223 32.413873 C 275.161223 44.100257 265.693378 53.583727 254.006994 53.583727 C 242.304986 53.583727 232.83714 44.100257 232.83714 32.413873 C 232.83714 20.727489 242.304986 11.24402 254.006994 11.24402 Z M 254.006994 11.24402 " transform="matrix(0.250024,0,0,0.250024,0,53.755133)"/>
</g>
</svg>

<svg xmlns="http://www.w3.org/2000/svg" width="128pt" height="128pt" viewBox="0 0 128 128"><defs><radialGradient id="a" gradientUnits="userSpaceOnUse" cx="450.909" cy="189.579" fx="450.909" fy="189.579" r="21.167" gradientTransform="matrix(0 -.31253 -.56255 0 178.093 254.381)"><stop offset="0" stop-opacity=".314"/><stop offset=".222" stop-opacity=".275"/><stop offset="1" stop-opacity="0"/></radialGradient><radialGradient id="b" gradientUnits="userSpaceOnUse" cx="450.909" cy="189.579" fx="450.909" fy="189.579" r="21.167" gradientTransform="matrix(0 .31253 .56255 0 -51.08 -30.11)"><stop offset="0" stop-opacity=".314"/><stop offset=".222" stop-opacity=".275"/><stop offset="1" stop-opacity="0"/></radialGradient><radialGradient id="c" gradientUnits="userSpaceOnUse" cx="450.909" cy="189.579" fx="450.909" fy="189.579" r="21.167" gradientTransform="matrix(0 -.31253 .56255 0 -51.08 254.381)"><stop offset="0" stop-opacity=".314"/><stop offset=".222" stop-opacity=".275"/><stop offset="1" stop-opacity="0"/></radialGradient><radialGradient id="d" gradientUnits="userSpaceOnUse" cx="450.909" cy="189.579" fx="450.909" fy="189.579" r="21.167" gradientTransform="matrix(0 .31253 -.56255 0 178.093 -30.11)"><stop offset="0" stop-opacity=".314"/><stop offset=".222" stop-opacity=".275"/><stop offset="1" stop-opacity="0"/></radialGradient><linearGradient id="e" gradientUnits="userSpaceOnUse" x1="255.323" y1="233.5" x2="255.323" y2="254.667" gradientTransform="matrix(.05344 0 0 .25002 49.862 53.755)"><stop offset="0" stop-opacity=".275"/><stop offset="1" stop-opacity="0"/></linearGradient><linearGradient id="f" gradientUnits="userSpaceOnUse" x1="254" y1="-168.667" x2="254" y2="233.5"><stop offset="0" stop-color="#eee"/><stop offset="1" stop-color="#bdbdbd"/></linearGradient><linearGradient id="g" gradientUnits="userSpaceOnUse" x1="960" y1="1375.118" x2="960" y2="415.118"><stop offset="0" stop-color="#4db6ac"/><stop offset="1" stop-color="#80cbc4"/></linearGradient><linearGradient id="h" gradientUnits="userSpaceOnUse" x1="960" y1="1375.118" x2="960" y2="415.118"><stop offset="0" stop-color="#42a5f5"/><stop offset="1" stop-color="#64b5f6"/></linearGradient><linearGradient id="i" gradientUnits="userSpaceOnUse" x1="1240" y1="1175.118" x2="960" y2="935.118" gradientTransform="scale(.06615)"><stop offset="0" stop-color="#26a69a" stop-opacity=".784"/><stop offset="1" stop-color="#4db6ac" stop-opacity="0"/></linearGradient><linearGradient id="j" gradientUnits="userSpaceOnUse" x1="-70.384" y1="-314.405" x2="-257.763" y2="-142.6"><stop offset="0" stop-color="#4db6ac"/><stop offset="1" stop-color="#80cbc4"/></linearGradient><linearGradient id="k" gradientUnits="userSpaceOnUse" x1="254" y1="53.583" x2="254" y2="11.25"><stop offset="0" stop-color="#616161"/><stop offset="1" stop-color="#757575"/></linearGradient></defs><path d="M72.766 112.137h10.586v-5.293H72.766zm0 0" fill="url(#a)"/><path d="M54.246 112.137H43.66v5.293h10.586zm0 0" fill="url(#b)"/><path d="M54.246 112.137H43.66v-5.293h10.586zm0 0" fill="url(#c)"/><path d="M72.766 112.137h10.586v5.293H72.766zm0 0" fill="url(#d)"/><path d="M54.246 110.813h18.52v6.617h-18.52zm0 0" fill="url(#e)"/><path d="M254.007-168.66c111.052 0 201.075 90.022 201.075 201.074s-90.023 201.09-201.075 201.09c-111.068 0-201.09-90.038-201.09-201.09s90.022-201.075 201.09-201.075zm0 0" transform="matrix(.25002 0 0 .25002 0 53.755)" fill="url(#f)" stroke-width="3" stroke-linecap="round" stroke="#333"/><path d="M63.508 112.137c-27.856 0-50.278-22.426-50.278-50.278 0-.164 0-.328.004-.492.262 27.625 22.582 49.785 50.274 49.785 27.687 0 50.008-22.16 50.27-49.785.003.164.003.328.003.492 0 27.852-22.422 50.278-50.273 50.278zm0 0" fill-opacity=".196"/><path d="M63.508 11.586c-27.856 0-50.278 22.422-50.278 50.273 0 .164 0 .328.004.493.262-27.625 22.582-49.782 50.274-49.782 27.687 0 50.008 22.157 50.27 49.782.003-.164.003-.329.003-.493 0-27.851-22.422-50.273-50.273-50.273zm0 0" fill="#fff" fill-opacity=".784"/><path d="M63.508 11.21c-28.055 0-50.653 22.595-50.653 50.65 0 28.054 22.598 50.652 50.653 50.652 28.05 0 50.648-22.598 50.648-50.653 0-28.054-22.597-50.648-50.648-50.648zm0 .75c27.648 0 49.898 22.247 49.898 49.9 0 27.652-22.25 49.902-49.898 49.902-27.653 0-49.903-22.25-49.903-49.903 0-27.652 22.25-49.898 49.903-49.898zm0 0" fill="#212121"/><path d="M63.508 19.523c23.379 0 42.336 18.954 42.336 42.336 0 23.383-18.957 42.34-42.336 42.34-23.383 0-42.34-18.957-42.34-42.34 0-23.382 18.957-42.336 42.34-42.336zm0 0" fill="#455a64" stroke-width=".63155052" stroke-linecap="round" stroke="#333"/><path d="M960.026 415.118c-288.102 0-520.048 231.946-520.048 519.99 0 178.86 89.4 336.05 226.1 429.526l45.232-66.077c-115.678-79.126-191.32-212.106-191.32-363.45 0-243.756 196.221-439.977 440.036-439.977 243.757 0 439.978 196.221 439.978 439.978 0 151.343-75.642 284.323-191.32 363.45l45.232 66.076c136.7-93.476 226.1-250.666 226.1-429.526 0-288.044-231.946-519.99-519.99-519.99zm0 0" transform="scale(.06615)" fill="url(#g)" stroke-width="7.758" stroke-linecap="round" stroke="#333"/><path d="M960.026 415.118v80.012c243.757 0 439.978 196.221 439.978 439.978 0 151.343-75.642 284.323-191.32 363.45l45.232 66.076c136.7-93.476 226.1-250.666 226.1-429.526 0-288.044-231.946-519.99-519.99-519.99zm0 0" transform="scale(.06615)" fill="url(#h)" stroke-width="7.758" stroke-linecap="round" stroke="#333"/><path d="M63.508 38.047v23.812l18.308 15.262c3.442-4.129 5.504-9.445 5.504-15.262a23.761 23.761 0 0 0-23.812-23.812zm0 0" fill="url(#i)"/><path d="M-138.924-312.989c2.917-.006 5.287 2.369 5.282 5.295l.003 95.242a5.296 5.296 0 0 1-5.285 5.293c-2.927-.005-5.299-2.358-5.293-5.285l-.002-95.263c-.006-2.917 2.369-5.287 5.295-5.282zm0 0" transform="matrix(-.16115 .19116 -.19116 -.16115 0 53.755)" fill="url(#j)" stroke-width="3" stroke-linecap="round" stroke-linejoin="round" stroke="#212121"/><path d="M254.007 11.244c11.686 0 21.154 9.483 21.154 21.17 0 11.686-9.468 21.17-21.154 21.17-11.702 0-21.17-9.484-21.17-21.17 0-11.687 9.468-21.17 21.17-21.17zm0 0" transform="matrix(.25002 0 0 .25002 0 53.755)" fill="url(#k)" stroke-width="3" stroke-linecap="round" stroke-linejoin="round" stroke="#212121"/></svg>
